communes/117.svg

<?xml version="1.0" encoding="UTF-8" standalone="no"?>
<svg
   xmlns:dc="http://purl.org/dc/elements/1.1/"
   xmlns:cc="http://creativecommons.org/ns#"
   xmlns:rdf="http://www.w3.org/1999/02/22-rdf-syntax-ns#"
   xmlns:svg="http://www.w3.org/2000/svg"
   xmlns="http://www.w3.org/2000/svg"
   xmlns:sodipodi="http://sodipodi.sourceforge.net/DTD/sodipodi-0.dtd"
   xmlns:inkscape="http://www.inkscape.org/namespaces/inkscape"
   version="1.0"
   width="210.65625"
   height="246.75758"
   id="svg2780"
   sodipodi:docname="117.svg">
  <metadata
     id="metadata10">
    <rdf:RDF>
      <cc:Work
         rdf:about="">
        <dc:format>image/svg+xml</dc:format>
        <dc:type
           rdf:resource="http://purl.org/dc/dcmitype/StillImage" />
      </cc:Work>
    </rdf:RDF>
  </metadata>
  <sodipodi:namedview
     pagecolor="#ffffff"
     bordercolor="#666666"
     borderopacity="1"
     objecttolerance="10"
     gridtolerance="10"
     guidetolerance="10"
     inkscape:pageopacity="0"
     inkscape:pageshadow="2"
     inkscape:window-width="640"
     inkscape:window-height="480"
     id="namedview8" />
  <defs
     id="defs2782" />
  <g
     transform="translate(-36.404035,-787.23915)"
     id="layer1">
    <path
       d="M 23.09375,124.53125 L 23.96875,161.5 C 26.678699,275.34346 222.35254,275.34345 225.0625,161.5 L 225.9375,124.53125 L 23.09375,124.53125 z "
       transform="translate(17.216535,786.11415)"
       style="color:#000000;fill:#fae330;fill-opacity:1;fill-rule:evenodd;stroke:#000000;stroke-width:1.99999988;stroke-linecap:butt;stroke-linejoin:miter;marker:none;marker-start:none;marker-mid:none;marker-end:none;stroke-miterlimit:4;stroke-dasharray:none;stroke-dashoffset:0;stroke-opacity:1;visibility:visible;display:inline;overflow:visible;enable-background:accumulate"
       id="rect2248" />
    <path
       d="M 20.1875,2.125 L 23.09375,124.53125 L 124.53125,124.53125 L 124.53125,2.125 L 20.1875,2.125 z "
       transform="translate(17.216535,786.11415)"
       style="color:#000000;fill:#ffffff;fill-opacity:1;fill-rule:evenodd;stroke:#000000;stroke-width:1.99999988;stroke-linecap:butt;stroke-linejoin:miter;marker:none;marker-start:none;marker-mid:none;marker-end:none;stroke-miterlimit:4;stroke-dasharray:none;stroke-dashoffset:0;stroke-opacity:1;visibility:visible;display:inline;overflow:visible;enable-background:accumulate"
       id="rect2252" />
    <path
       d="M 124.53125,2.125 L 124.53125,124.53125 L 225.9375,124.53125 L 228.84375,2.125 L 124.53125,2.125 z "
       transform="translate(17.216535,786.11415)"
       style="color:#000000;fill:#2d73c4;fill-opacity:1;fill-rule:evenodd;stroke:#000000;stroke-width:1.99999988;stroke-linecap:butt;stroke-linejoin:miter;marker:none;marker-start:none;marker-mid:none;marker-end:none;stroke-miterlimit:4;stroke-dasharray:none;stroke-dashoffset:0;stroke-opacity:1;visibility:visible;display:inline;overflow:visible;enable-background:accumulate"
       id="rect2254" />
  </g>
</svg>

<?xml version="1.0" encoding="UTF-8"?>
<svg version="1.0" viewBox="0 0 210.66 246.76" xmlns="http://www.w3.org/2000/svg" xmlns:cc="http://creativecommons.org/ns#" xmlns:dc="http://purl.org/dc/elements/1.1/" xmlns:rdf="http://www.w3.org/1999/02/22-rdf-syntax-ns#">
<metadata>
<rdf:RDF>
<cc:Work rdf:about="">
<dc:format>image/svg+xml</dc:format>
<dc:type rdf:resource="http://purl.org/dc/dcmitype/StillImage"/>
</cc:Work>
</rdf:RDF>
</metadata>
<g transform="translate(-36.404 -787.24)" fill-rule="evenodd" stroke="#000" stroke-width="2">
<path transform="translate(17.217 786.11)" d="m23.094 124.53 0.875 36.969c2.7099 113.84 198.38 113.84 201.09 0l0.875-36.969h-202.84z" color="#000000" fill="#fae330"/>
<path transform="translate(17.217 786.11)" d="m20.188 2.125 2.9062 122.41h101.44v-122.41h-104.34z" color="#000000" fill="#fff"/>
<path transform="translate(17.217 786.11)" d="m124.53 2.125v122.41h101.41l2.9062-122.41h-104.31z" color="#000000" fill="#2d73c4"/>
</g>
</svg>
